src/style-core/images/icon/exit.svg

<svg width="32" height="32" viewBox="0 0 32 32" xmlns="http://www.w3.org/2000/svg">
<path fill-rule="evenodd" clip-rule="evenodd" d="M4.16496 5.9554C4.7767 5.34367 5.60638 5 6.47151 5L18.0524 5C18.9175 5 19.7472 5.34367 20.3589 5.9554C20.9707 6.56714 21.3143 7.39683 21.3143 8.26195V10.6746C21.3143 11.1437 20.9341 11.5239 20.4651 11.5239C19.996 11.5239 19.6158 11.1437 19.6158 10.6746V8.26195C19.6158 7.84731 19.4511 7.44964 19.1579 7.15644C18.8647 6.86325 18.467 6.69853 18.0524 6.69853L6.47151 6.69853C6.05686 6.69853 5.6592 6.86325 5.366 7.15644C5.07281 7.44964 4.90809 7.84731 4.90809 8.26195L4.90809 22.7381C4.90809 23.1527 5.07281 23.5504 5.366 23.8436C5.6592 24.1368 6.05686 24.3015 6.47151 24.3015L18.0524 24.3015C18.467 24.3015 18.8647 24.1368 19.1579 23.8436C19.4511 23.5504 19.6158 23.1527 19.6158 22.7381V20.3254C19.6158 19.8563 19.996 19.4761 20.4651 19.4761C20.9341 19.4761 21.3143 19.8563 21.3143 20.3254V22.7381C21.3143 23.6032 20.9707 24.4329 20.3589 25.0446C19.7472 25.6563 18.9175 26 18.0524 26L6.47151 26C5.60638 26 4.7767 25.6563 4.16496 25.0446C3.55323 24.4329 3.20956 23.6032 3.20956 22.7381L3.20956 8.26195C3.20956 7.39683 3.55323 6.56714 4.16496 5.9554Z"/>
<path fill-rule="evenodd" clip-rule="evenodd" d="M23.7248 10.0741C24.0565 9.74245 24.5942 9.74245 24.9259 10.0741L29.7513 14.8995C30.0829 15.2311 30.0829 15.7689 29.7513 16.1005L24.9259 20.9259C24.5942 21.2575 24.0565 21.2575 23.7248 20.9259C23.3932 20.5942 23.3932 20.0565 23.7248 19.7248L27.9497 15.5L23.7248 11.2752C23.3932 10.9435 23.3932 10.4058 23.7248 10.0741Z"/>
<path fill-rule="evenodd" clip-rule="evenodd" d="M11.8349 15.5C11.8349 15.031 12.2151 14.6507 12.6842 14.6507L29.1507 14.6507C29.6198 14.6507 30 15.031 30 15.5C30 15.969 29.6198 16.3493 29.1507 16.3493H12.6842C12.2151 16.3493 11.8349 15.969 11.8349 15.5Z"/>
</svg>

<svg xmlns="http://www.w3.org/2000/svg" width="32" height="32" fill="currentColor" viewBox="0 0 32 32">
  <path fill-rule="evenodd" d="M4.165 5.955A3.262 3.262 0 016.472 5h11.58a3.262 3.262 0 013.262 3.262v2.413a.85.85 0 11-1.698 0V8.262a1.563 1.563 0 00-1.564-1.563H6.472a1.563 1.563 0 00-1.564 1.563v14.476a1.564 1.564 0 001.564 1.564h11.58a1.563 1.563 0 001.564-1.564v-2.413a.85.85 0 111.698 0v2.413A3.262 3.262 0 0118.052 26H6.472a3.262 3.262 0 01-3.262-3.262V8.262c0-.865.343-1.695.955-2.307zM23.725 10.074a.85.85 0 011.2 0l4.826 4.825a.85.85 0 010 1.202l-4.825 4.825a.85.85 0 01-1.201-1.201L27.95 15.5l-4.225-4.225a.85.85 0 010-1.2z" clip-rule="evenodd"/>
  <path fill-rule="evenodd" d="M11.835 15.5c0-.469.38-.85.85-.85H29.15a.85.85 0 010 1.7H12.684a.85.85 0 01-.85-.85z" clip-rule="evenodd"/>
</svg>
